jsapp/svg-icons/close.svg

<svg height="40" viewBox="0 0 40 40" width="40" xmlns="http://www.w3.org/2000/svg"><path d="m20 18.56 7.56-7.56 1.44 1.44-7.56 7.56 7.56 7.56-1.44 1.44-7.56-7.56-7.56 7.56-1.44-1.44 7.56-7.56-7.56-7.56 1.44-1.44z" fill-rule="evenodd"/></svg>

<?xml version="1.0" encoding="UTF-8"?>
<svg width="40px" height="40px" viewBox="0 0 40 40" version="1.1" xmlns="http://www.w3.org/2000/svg" xmlns:xlink="http://www.w3.org/1999/xlink">
    <!-- Generator: Sketch 50.2 (55047) - http://www.bohemiancoding.com/sketch -->
    <title>Icons/close</title>
    <desc>Created with Sketch.</desc>
    <defs>
        <path d="M20,18.56 L27.56,11 L29,12.44 L21.44,20 L29,27.56 L27.56,29 L20,21.44 L12.44,29 L11,27.56 L18.56,20 L11,12.44 L12.44,11 L20,18.56 Z" id="path-1"></path>
    </defs>
    <g id="Icons/close" stroke="none" stroke-width="1" fill="none" fill-rule="evenodd">
        <mask id="mask-2" fill="white">
            <use xlink:href="#path-1"></use>
        </mask>
        <use id="Mask" fill="#000000" xlink:href="#path-1"></use>
    </g>
</svg>
